X:411
T:Millbank Cottage 
C:Joe Buchanan's Scottish Tome - Page 375.0
I:375 0
C:W.D. Dumbreck
R:March
Z:Carl Allison
L:1/8
M:2/4
K:A
a | "A"c/>A/A/>B/ "A"A/>A/A/>B/ | "A"c/<A/c/<e/ "D"ag/>f/ | "A"e/>c/a/>f/ "F#m"e/>f/e/>A/ | "A"{d}cB B/<B/a |
"A"cA/>B/ A/>A/A/>B/ | "A"c/<A/c/<e/ "D"ag/>f/ | "A"e/<a/e/>c/ "Bm"B/<f/"E7"e/>B/ | "A"{d}cA A/<A/ :|
f/>g/ | "D"ag/>f/ "A"ea | "A"A/>B/c/<A/ "D"ag/>f/ | "A"e/>c/a/>f/ "F#m"e/>f/e/>A/ | "D"{d}cB "E7"B/<B/f/>g/ |
"D"ag/>f/ "A"ea | "F#m"A/>B/c/<A/ "D"ag/>f/ | "A"e/<a/e/>c/ "E7"B/<f/e/>B/ | "A"{d}cA "D"B/<B/"A"f/>g/ |
"D"ag/>f/ "A"ea | "F#m"A/>B/c/<A/ "D"ag/>f/ | "A"e/<a/e/>c/ "F#m"B/<f/e/>B/ | "D"{d}cA "E7"B/<B/a |
"A"A/>A/A/>B/ A/>A/A/>B/ | "F#m"c/<A/c/<e/ "D"ag/>f/ | "A"e/<a/e/>c/ "E7"B/<f/e/>B/ | "A"{d}cA A/<A/ |]
a | "A"A/>A/c/<A/ e/>A/c/<A/ | "F#m"A/>B/c/<A/ a/>g/f/<a/ | "A"A/>A/c/<A/ e/>f/e/>A/ | "Bm"{d}cB "E7"B/<B/a |
"A"A/>A/c/<A/ e/>A/c/<A/ | "F#m"A/>B/c/<A/ "D"aa/>f/ | "A"e/<a/e/>c/ "Bm"B/<f/"E7"e/>B/ | "A"{d}cA A/<A/ :|
%%newpage
T:Millbank Cottage (cont)
"E7"f/>g/ | "A"a/>A/a/>e/ "D"a/>g/f/<a/ | "F#m"A/>B/c/<A/ "D"aa/>f/ | "A"e/>c/a/>f/ e/>f/e/>A/ | "Bm"{d}cB "E7"B/<B/"E"f/>g/ |
"A"a/>A/a/>e/ "D"a/>g/f/<a/ | "F#m"A/>B/c/<A/ "D"aa/>f/ | "A"e/>c/a/>f/ e/>f/e/>A/ | "A"{d}cA "D"A/<A/"A"f/>"E7"g/ |
"A"a/>A/a/>e/ "D"a/>g/f/<a/ | "F#m"A/>B/c/<A/ "D"aa/>f/ | "A"e/>c/a/>f/ e/>f/e/>A/ | "Bm"{d}cA "D"B/<B/"E7"f/>g/ |
"A"A/>A/c/<A/ "A"e/>A/c/<A/ | "F#m"A/>B/c/<A/ "D"aa/>f/ | "A"e/<a/e/>c/ "E7"B/<f/e/>B/ | "A"{d}cA A/<A/ |]

